polaris-icons/icons/newicons/Frame 124.svg

<svg width="20" height="20" viewBox="0 0 20 20" fill="none" xmlns="http://www.w3.org/2000/svg">
<path fill-rule="evenodd" clip-rule="evenodd" d="M5.75 4C3.67893 4 2 5.67893 2 7.75V12.25C2 14.3211 3.67893 16 5.75 16H14.25C16.3211 16 18 14.3211 18 12.25V7.75C18 5.67893 16.3211 4 14.25 4H5.75ZM5.06107 5.60743C5.27819 5.53767 5.5097 5.5 5.75 5.5H14.25C14.4903 5.5 14.7218 5.53767 14.9389 5.60744L10 9.08299L5.06107 5.60743ZM3.83043 6.57561C3.62084 6.91746 3.5 7.31962 3.5 7.75V12.25C3.5 13.4926 4.50736 14.5 5.75 14.5H14.25C15.4926 14.5 16.5 13.4926 16.5 12.25V7.75C16.5 7.31962 16.3792 6.91747 16.1696 6.57562L10.7194 10.4109C10.2879 10.7146 9.71215 10.7146 9.28064 10.4109L3.83043 6.57561Z" fill="black"/>
</svg>

<svg viewBox="0 0 20 20" fill="none" xmlns="http://www.w3.org/2000/svg"><path fill-rule="evenodd" clip-rule="evenodd" d="M5.75 4a3.75 3.75 0 0 0-3.75 3.75v4.5a3.75 3.75 0 0 0 3.75 3.75h8.5a3.75 3.75 0 0 0 3.75-3.75v-4.5a3.75 3.75 0 0 0-3.75-3.75h-8.5Zm-.689 1.607c.217-.07.449-.107.689-.107h8.5c.24 0 .472.038.689.107l-4.939 3.476-4.939-3.476Zm-1.23.969a2.24 2.24 0 0 0-.331 1.174v4.5a2.25 2.25 0 0 0 2.25 2.25h8.5a2.25 2.25 0 0 0 2.25-2.25v-4.5c0-.43-.12-.833-.33-1.174l-5.45 3.835a1.25 1.25 0 0 1-1.44 0l-5.45-3.835Z" fill="#000"/></svg>
